src/img/icons/chart.svg

<svg width="32" height="32" viewBox="0 0 32 32" fill="none" xmlns="http://www.w3.org/2000/svg">
<path d="M4.5024 29C3.81493 29 3.226 28.7636 2.7356 28.2907C2.2452 27.8178 2 27.2498 2 26.5866V2.9693C2 2.69467 2.0968 2.4644 2.2904 2.27848C2.48427 2.09283 2.72427 2 3.0104 2C3.2968 2 3.53507 2.09283 3.7252 2.27848C3.91533 2.4644 4.0104 2.69467 4.0104 2.9693V26.5866C4.0104 26.7054 4.0616 26.8143 4.164 26.9133C4.26667 27.012 4.37947 27.0614 4.5024 27.0614H28.9948C29.2796 27.0614 29.5184 27.1549 29.7112 27.3418C29.9037 27.5285 30 27.7599 30 28.0361C30 28.312 29.9037 28.5416 29.7112 28.725C29.5184 28.9083 29.2796 29 28.9948 29H4.5024ZM8.9856 23.6987C8.65013 23.6987 8.36947 23.5888 8.1436 23.369C7.918 23.1491 7.8052 22.8767 7.8052 22.5516V12.7564C7.8052 12.4378 7.91867 12.1669 8.1456 11.9437C8.37253 11.7208 8.65373 11.6093 8.9892 11.6093H10.5572C10.91 11.6093 11.2052 11.7269 11.4428 11.9622C11.6801 12.1973 11.7988 12.4831 11.7988 12.8197V22.4942C11.7988 22.8372 11.6795 23.1238 11.4408 23.3539C11.2021 23.5838 10.9064 23.6987 10.5536 23.6987H8.9856ZM16.546 23.6987C16.2097 23.6987 15.9283 23.5888 15.7016 23.369C15.4752 23.1491 15.362 22.8767 15.362 22.5516V4.98697C15.362 4.6514 15.4817 4.36636 15.7212 4.13184C15.9604 3.89733 16.2569 3.78007 16.6108 3.78007H18.1856C18.5144 3.78007 18.7933 3.89167 19.0224 4.11487C19.2515 4.33807 19.366 4.60897 19.366 4.92757V22.4922C19.366 22.834 19.2451 23.1206 19.0032 23.352C18.7611 23.5832 18.4669 23.6987 18.1208 23.6987H16.546ZM24.0236 23.6987C23.6948 23.6987 23.4159 23.5888 23.1868 23.369C22.9577 23.1491 22.8432 22.8767 22.8432 22.5516V19.0605C22.8432 18.725 22.9628 18.4399 23.202 18.2054C23.4415 17.9711 23.7381 17.854 24.092 17.854H25.6664C25.9952 17.854 26.2741 17.9655 26.5032 18.1884C26.7325 18.4116 26.8472 18.6825 26.8472 19.0011V22.4922C26.8472 22.834 26.7261 23.1206 26.484 23.352C26.2419 23.5832 25.9477 23.6987 25.6016 23.6987H24.0236Z" fill="#131212"/>
</svg>

<svg xmlns="http://www.w3.org/2000/svg" viewBox="0 0 32 32">
  <path fill="currentColor" d="M4.502 29a2.455 2.455 0 0 1-1.766-.71C2.246 27.819 2 27.25 2 26.588V2.969a.92.92 0 0 1 .29-.69A1 1 0 0 1 3.01 2c.287 0 .525.093.715.278a.93.93 0 0 1 .285.691v23.618a.45.45 0 0 0 .154.326.48.48 0 0 0 .338.148h24.493a.99.99 0 0 1 .716.28.928.928 0 0 1 .289.695.912.912 0 0 1-.289.689 1 1 0 0 1-.716.275H4.502Zm4.484-5.301a1.16 1.16 0 0 1-.842-.33 1.096 1.096 0 0 1-.339-.817v-9.796c0-.318.114-.59.34-.812a1.16 1.16 0 0 1 .844-.335h1.568c.353 0 .648.118.886.353.237.235.356.521.356.858v9.674c0 .343-.12.63-.358.86a1.23 1.23 0 0 1-.887.345H8.986Zm7.56 0c-.336 0-.618-.11-.844-.33a1.094 1.094 0 0 1-.34-.817V4.987c0-.336.12-.62.36-.855a1.22 1.22 0 0 1 .889-.352h1.575c.328 0 .607.112.836.335.23.223.344.494.344.813v17.564c0 .342-.12.629-.363.86a1.23 1.23 0 0 1-.882.347h-1.575Zm7.478 0c-.33 0-.608-.11-.837-.33a1.087 1.087 0 0 1-.344-.817V19.06c0-.336.12-.621.359-.856.24-.234.536-.351.89-.351h1.574c.33 0 .608.111.837.334.23.224.344.495.344.813v3.491c0 .342-.12.629-.363.86a1.23 1.23 0 0 1-.882.347h-1.578Z"/>
</svg>
